X: 1231
T: the Dutchess of Buccleugh's Strathspey
%R: strathspey
B: Niel Gow & Sons "A Collection of Strathspey Reels, etc." v.1 p.23 #1
Z: 2022 John Chambers <jc:trillian.mit.edu>
M: C
L: 1/16
K: Amix
% - - - - - - - - - -
% Voice 1 reformatted for 2 6-bar lines, for compactness and proofreading.
V: 1 staves=2
ed |\
c2A2A2Tc2 a2A2A2T=c2 | B2G2 GABc d4 d2ed |\
c2A2A2Tc2 a2A2A2Tc2 | e3c ABcd e4e2 :|\
fg |\
a3fg3e f3de3c | dcBA GABc d4 d2fg |
a3fg3e f3de3c | edcB ABcd e4 e2fg ||\
agfa gfeg fedf edce | dcBA GABc d4 d2ed |\
c2A2A2Tc2 a2A2A2Tc2 | e3c ABcd e4e2 |]
% - - - - - - - - - -
% Voice 2 preserves the staff layout in the book.
V: 2 clef=bass middle=d
z2 | a4a4 a4a4 | g4g4 g4g4 | a4a4 a4a4 | e4e4 A4A2 :| z2 |
a4a4 a4a4 | g4g4 g4g4 | a4a4 a4a4 | e4e4 a4A4 || a4a4
a4a4 | g4g4 g4g4 | a4a4 a4a4 | e4e4 A4A2 |]
